krita/pics/paintops/light_filterbrush.svg

<!--Created with Inkscape (http://www.inkscape.org/)--><svg xmlns:dc="http://purl.org/dc/elements/1.1/" xmlns:cc="http://creativecommons.org/ns#" xmlns:rdf="http://www.w3.org/1999/02/22-rdf-syntax-ns#" xmlns="http://www.w3.org/2000/svg" xmlns:xlink="http://www.w3.org/1999/xlink" xmlns:sodipodi="http://sodipodi.sourceforge.net/DTD/sodipodi-0.dtd" xmlns:inkscape="http://www.inkscape.org/namespaces/inkscape" width="22" height="22" viewBox="0 0 22 22" id="svg2" version="1.1" inkscape:version="0.92.1 r15371" sodipodi:docname="light_filterbrush.svg" inkscape:export-filename="krita_quickbrush.png" inkscape:export-xdpi="90" inkscape:export-ydpi="90"><defs id="defs4"><radialGradient inkscape:collect="always" xlink:href="#linearGradient903" id="radialGradient897" cx="11" cy="21" fx="7" fy="17" r="7" gradientUnits="userSpaceOnUse" gradientTransform="matrix(1.07143 0 0 1.07143 -.786 -1.5)"/><linearGradient id="linearGradient903" inkscape:collect="always"><stop id="stop899" offset="0" style="stop-color:#d2d2d2;stop-opacity:0"/><stop id="stop901" offset="1" style="stop-color:#d2d2d2;stop-opacity:1"/></linearGradient></defs><sodipodi:namedview id="base" pagecolor="#ffffff" bordercolor="#666666" borderopacity="1.0" inkscape:pageopacity="0" inkscape:pageshadow="2" inkscape:zoom="27.4375" inkscape:cx="2.6393127" inkscape:cy="8.6884748" inkscape:document-units="px" inkscape:current-layer="g4152" showgrid="true" units="px" inkscape:showpageshadow="false" showborder="true" inkscape:window-width="1884" inkscape:window-height="1051" inkscape:window-x="0" inkscape:window-y="0" inkscape:window-maximized="1" objecttolerance="10" guidetolerance="10" inkscape:snap-perpendicular="true" inkscape:snap-tangential="true" inkscape:snap-path-clip="true" inkscape:snap-path-mask="true" gridtolerance="10" showguides="false"><inkscape:grid type="xygrid" id="grid3336" dotted="false" empspacing="1" snapvisiblegridlinesonly="false" enabled="true" visible="true" empcolor="#aaaaff" empopacity="0.25098039" color="#7878ff" opacity="0.1254902" spacingx="1" spacingy="1"/></sodipodi:namedview><metadata id="metadata7"><rdf:RDF><cc:Work><dc:format>image/svg+xml</dc:format><dc:type rdf:resource="http://purl.org/dc/dcmitype/StillImage"/><dc:title/><dc:creator><cc:Agent><dc:title>Timothée Giet</dc:title></cc:Agent></dc:creator><dc:date>2018</dc:date><cc:license rdf:resource="http://creativecommons.org/licenses/by-sa/4.0/"/></cc:Work><cc:License rdf:about="http://creativecommons.org/licenses/by-sa/4.0/"><cc:permits rdf:resource="http://creativecommons.org/ns#Reproduction"/><cc:permits rdf:resource="http://creativecommons.org/ns#Distribution"/><cc:requires rdf:resource="http://creativecommons.org/ns#Notice"/><cc:requires rdf:resource="http://creativecommons.org/ns#Attribution"/><cc:permits rdf:resource="http://creativecommons.org/ns#DerivativeWorks"/><cc:requires rdf:resource="http://creativecommons.org/ns#ShareAlike"/></cc:License></rdf:RDF></metadata><g style="display:inline" inkscape:label="Layer 3 copy" id="g4152" inkscape:groupmode="layer" transform="translate(0 -10)"><circle style="display:inline;opacity:.881;fill:url(#radialGradient897);fill-opacity:1;stroke:none;stroke-width:0;stroke-linecap:butt;stroke-linejoin:round;stroke-miterlimit:4;stroke-dasharray:none;stroke-opacity:1" id="path823-3" cx="11" cy="21" r="7.5"/><path style="opacity:1;fill:#d2d2d2;fill-opacity:1;stroke:none;stroke-width:0;stroke-linecap:butt;stroke-linejoin:round;stroke-miterlimit:4;stroke-dasharray:none;stroke-opacity:1" d="M11 2a9 9 0 0 0-9 9 9 9 0 0 0 9 9 9 9 0 0 0 9-9 9 9 0 0 0-9-9zm0 2a7 7 0 0 1 7 7 7 7 0 0 1-7 7 7 7 0 0 1-7-7 7 7 0 0 1 7-7z" transform="translate(0 10)" id="path823"/></g></svg>

<?xml version="1.0" encoding="UTF-8" standalone="no"?>
<!-- Created with Inkscape (http://www.inkscape.org/) -->

<svg
   xmlns:dc="http://purl.org/dc/elements/1.1/"
   xmlns:cc="http://creativecommons.org/ns#"
   xmlns:rdf="http://www.w3.org/1999/02/22-rdf-syntax-ns#"
   xmlns:svg="http://www.w3.org/2000/svg"
   xmlns="http://www.w3.org/2000/svg"
   xmlns:xlink="http://www.w3.org/1999/xlink"
   xmlns:sodipodi="http://sodipodi.sourceforge.net/DTD/sodipodi-0.dtd"
   xmlns:inkscape="http://www.inkscape.org/namespaces/inkscape"
   width="22"
   height="22"
   viewBox="0 0 22 22"
   id="svg2"
   version="1.1"
   inkscape:version="0.92.1 r15371"
   sodipodi:docname="light_filterbrush.svg"
   inkscape:export-filename="krita_quickbrush.png"
   inkscape:export-xdpi="90"
   inkscape:export-ydpi="90">
  <defs
     id="defs4">
    <linearGradient
       id="linearGradient903"
       inkscape:collect="always">
      <stop
         id="stop899"
         offset="0"
         style="stop-color:#d2d2d2;stop-opacity:0" />
      <stop
         id="stop901"
         offset="1"
         style="stop-color:#d2d2d2;stop-opacity:1" />
    </linearGradient>
    <radialGradient
       inkscape:collect="always"
       xlink:href="#linearGradient903"
       id="radialGradient897"
       cx="11"
       cy="21"
       fx="7"
       fy="17"
       r="7"
       gradientUnits="userSpaceOnUse"
       gradientTransform="matrix(1.0714286,0,0,1.0714286,-0.785714,-1.5)" />
  </defs>
  <sodipodi:namedview
     id="base"
     pagecolor="#ffffff"
     bordercolor="#666666"
     borderopacity="1.0"
     inkscape:pageopacity="0"
     inkscape:pageshadow="2"
     inkscape:zoom="27.4375"
     inkscape:cx="2.6393127"
     inkscape:cy="8.6884748"
     inkscape:document-units="px"
     inkscape:current-layer="g4152"
     showgrid="true"
     units="px"
     inkscape:showpageshadow="false"
     showborder="true"
     inkscape:window-width="1884"
     inkscape:window-height="1051"
     inkscape:window-x="0"
     inkscape:window-y="0"
     inkscape:window-maximized="1"
     objecttolerance="10"
     guidetolerance="10"
     inkscape:snap-perpendicular="true"
     inkscape:snap-tangential="true"
     inkscape:snap-path-clip="true"
     inkscape:snap-path-mask="true"
     gridtolerance="10"
     showguides="false">
    <inkscape:grid
       type="xygrid"
       id="grid3336"
       dotted="false"
       empspacing="1"
       snapvisiblegridlinesonly="false"
       enabled="true"
       visible="true"
       empcolor="#aaaaff"
       empopacity="0.25098039"
       color="#7878ff"
       opacity="0.1254902"
       spacingx="1"
       spacingy="1" />
  </sodipodi:namedview>
  <metadata
     id="metadata7">
    <rdf:RDF>
      <cc:Work
         rdf:about="">
        <dc:format>image/svg+xml</dc:format>
        <dc:type
           rdf:resource="http://purl.org/dc/dcmitype/StillImage" />
        <dc:title />
        <dc:creator>
          <cc:Agent>
            <dc:title>Timothée Giet</dc:title>
          </cc:Agent>
        </dc:creator>
        <dc:date>2018</dc:date>
        <cc:license
           rdf:resource="http://creativecommons.org/licenses/by-sa/4.0/" />
      </cc:Work>
      <cc:License
         rdf:about="http://creativecommons.org/licenses/by-sa/4.0/">
        <cc:permits
           rdf:resource="http://creativecommons.org/ns#Reproduction" />
        <cc:permits
           rdf:resource="http://creativecommons.org/ns#Distribution" />
        <cc:requires
           rdf:resource="http://creativecommons.org/ns#Notice" />
        <cc:requires
           rdf:resource="http://creativecommons.org/ns#Attribution" />
        <cc:permits
           rdf:resource="http://creativecommons.org/ns#DerivativeWorks" />
        <cc:requires
           rdf:resource="http://creativecommons.org/ns#ShareAlike" />
      </cc:License>
    </rdf:RDF>
  </metadata>
  <g
     style="display:inline"
     inkscape:label="Layer 3 copy"
     id="g4152"
     inkscape:groupmode="layer"
     transform="translate(0,-10)">
    <g
       transform="translate(0,6)"
       id="g4160"
       style="display:inline" />
    <circle
       style="display:inline;opacity:0.881;fill:url(#radialGradient897);fill-opacity:1;stroke:none;stroke-width:0;stroke-linecap:butt;stroke-linejoin:round;stroke-miterlimit:4;stroke-dasharray:none;stroke-opacity:1"
       id="path823-3"
       cx="11"
       cy="21"
       r="7.5" />
    <path
       style="opacity:1;fill:#d2d2d2;fill-opacity:1;stroke:none;stroke-width:0;stroke-linecap:butt;stroke-linejoin:round;stroke-miterlimit:4;stroke-dasharray:none;stroke-opacity:1"
       d="M 11 2 A 9 9 0 0 0 2 11 A 9 9 0 0 0 11 20 A 9 9 0 0 0 20 11 A 9 9 0 0 0 11 2 z M 11 4 A 7 7 0 0 1 18 11 A 7 7 0 0 1 11 18 A 7 7 0 0 1 4 11 A 7 7 0 0 1 11 4 z "
       transform="translate(0,10)"
       id="path823" />
  </g>
</svg>
